src/gui/emoticons/musical-note.svg

<svg xmlns="http://www.w3.org/2000/svg" xmlns:xlink="http://www.w3.org/1999/xlink" width="16pt" height="16pt" version="1.1" viewBox="0 0 16 16"><defs><radialGradient id="radial0" cx="67.25" cy="9.25" r="98.804" fx="67.25" fy="9.25" gradientTransform="matrix(0.125,0,0,0.125,0,0)" gradientUnits="userSpaceOnUse"><stop offset="0" style="stop-color:#40c4ff;stop-opacity:1"/><stop offset="1" style="stop-color:#0091ea;stop-opacity:1"/></radialGradient><filter id="alpha" width="100%" height="100%" x="0%" y="0%" filterUnits="objectBoundingBox"><feColorMatrix in="SourceGraphic" type="matrix" values="0 0 0 0 1 0 0 0 0 1 0 0 0 0 1 0 0 0 1 0"/></filter><mask id="mask0"><g filter="url(#alpha)"><rect width="16" height="16" x="0" y="0" style="fill:#000;fill-opacity:.2;stroke:none"/></g></mask><clipPath id="clip1"><rect width="16" height="16"/></clipPath><g id="surface6" clip-path="url(#clip1)"><path style="stroke:none;fill-rule:nonzero;fill:#424242;fill-opacity:1" d="M 13.070312 0.875 C 13.097656 0.875 13.125 0.898438 13.125 0.929688 L 13.125 11.925781 L 13.121094 11.988281 C 13.105469 12.484375 12.855469 13.015625 12.433594 13.433594 C 12 13.867188 11.441406 14.125 10.9375 14.125 C 10.71875 14.125 10.402344 14.074219 10.164062 13.835938 C 9.929688 13.601562 9.832031 13.246094 9.890625 12.835938 C 9.953125 12.386719 10.195312 11.9375 10.5625 11.566406 C 10.984375 11.144531 11.511719 10.894531 12.011719 10.878906 L 12.375 10.867188 L 12.375 4.515625 C 12.375 4.171875 12.09375 3.890625 11.75 3.890625 C 11.71875 3.890625 11.6875 3.894531 11.65625 3.898438 L 5.15625 4.875 C 4.847656 4.917969 4.625 5.179688 4.625 5.488281 L 4.625 12.925781 L 4.621094 12.988281 C 4.605469 13.484375 4.355469 14.015625 3.933594 14.433594 C 3.5 14.867188 2.941406 15.125 2.4375 15.125 C 2.21875 15.125 1.902344 15.074219 1.664062 14.835938 C 1.429688 14.601562 1.332031 14.246094 1.390625 13.835938 C 1.453125 13.386719 1.695312 12.9375 2.0625 12.566406 C 2.484375 12.144531 3.011719 11.894531 3.511719 11.878906 L 3.875 11.867188 L 3.875 2.300781 C 3.875 2.273438 3.894531 2.25 3.921875 2.246094 L 13.058594 0.875 L 13.070312 0.875 M 13.070312 0.5 C 13.050781 0.5 13.027344 0.5 13.007812 0.503906 L 3.867188 1.875 C 3.65625 1.90625 3.5 2.089844 3.5 2.300781 L 3.5 11.503906 C 2.933594 11.519531 2.304688 11.796875 1.800781 12.300781 C 0.917969 13.183594 0.738281 14.4375 1.398438 15.101562 C 1.671875 15.371094 2.039062 15.5 2.4375 15.5 C 3.023438 15.5 3.675781 15.222656 4.199219 14.699219 C 4.703125 14.195312 4.980469 13.566406 4.996094 13 L 5 13 L 5 5.488281 C 5 5.367188 5.089844 5.261719 5.210938 5.242188 L 11.710938 4.265625 C 11.726562 4.265625 11.738281 4.265625 11.75 4.265625 C 11.886719 4.265625 12 4.375 12 4.515625 L 12 10.503906 C 11.433594 10.519531 10.804688 10.796875 10.300781 11.300781 C 9.417969 12.183594 9.238281 13.4375 9.898438 14.101562 C 10.171875 14.371094 10.539062 14.5 10.9375 14.5 C 11.523438 14.5 12.175781 14.222656 12.699219 13.699219 C 13.203125 13.195312 13.480469 12.566406 13.496094 12 L 13.5 12 L 13.5 0.929688 C 13.5 0.6875 13.304688 0.5 13.070312 0.5 Z M 13.070312 0.5"/></g></defs><g id="surface1"><path style="stroke:none;fill-rule:nonzero;fill:url(#radial0)" d="M 3.867188 1.875 C 3.65625 1.90625 3.5 2.089844 3.5 2.300781 L 3.5 11.503906 C 2.933594 11.519531 2.304688 11.796875 1.800781 12.300781 C 0.917969 13.183594 0.738281 14.4375 1.398438 15.101562 C 2.0625 15.761719 3.316406 15.582031 4.199219 14.699219 C 4.703125 14.195312 4.980469 13.566406 4.996094 13 L 5 13 L 5 5.488281 C 5 5.367188 5.089844 5.261719 5.210938 5.242188 L 11.710938 4.265625 C 11.863281 4.246094 12 4.363281 12 4.515625 L 12 10.503906 C 11.433594 10.519531 10.804688 10.796875 10.300781 11.300781 C 9.417969 12.183594 9.238281 13.4375 9.898438 14.101562 C 10.5625 14.761719 11.816406 14.582031 12.699219 13.699219 C 13.203125 13.195312 13.480469 12.566406 13.496094 12 L 13.5 12 L 13.5 0.929688 C 13.5 0.667969 13.265625 0.464844 13.007812 0.503906 Z M 3.867188 1.875"/><use mask="url(#mask0)" xlink:href="#surface6"/></g></svg>

<svg xmlns="http://www.w3.org/2000/svg" xmlns:xlink="http://www.w3.org/1999/xlink" width="16pt" height="16pt" viewBox="0 0 16 16"><defs><radialGradient id="c" cx="67.25" cy="9.25" r="98.804" fx="67.25" fy="9.25" gradientTransform="scale(.125)" gradientUnits="userSpaceOnUse"><stop offset="0" style="stop-color:#40c4ff;stop-opacity:1"/><stop offset="1" style="stop-color:#0091ea;stop-opacity:1"/></radialGradient><clipPath id="b"><path d="M0 0h16v16H0z"/></clipPath><filter id="a" width="100%" height="100%" x="0%" y="0%" filterUnits="objectBoundingBox"><feColorMatrix in="SourceGraphic" values="0 0 0 0 1 0 0 0 0 1 0 0 0 0 1 0 0 0 1 0"/></filter><mask id="d"><g filter="url(#a)"><path d="M0 0h16v16H0z" style="fill:#000;fill-opacity:.2;stroke:none"/></g></mask><g id="e" clip-path="url(#b)"><path d="M13.07.875c.028 0 .055.023.055.055v10.996l-.004.062c-.016.496-.266 1.028-.687 1.446-.434.433-.993.691-1.496.691-.22 0-.536-.05-.774-.29-.234-.233-.332-.589-.273-1 .062-.448.304-.898.672-1.269.421-.421.949-.671 1.449-.687l.363-.012V4.516a.627.627 0 0 0-.719-.618l-6.5.977a.615.615 0 0 0-.531.613v7.438l-.004.062c-.016.496-.266 1.028-.687 1.446-.434.433-.993.691-1.497.691-.218 0-.535-.05-.773-.29-.234-.233-.332-.589-.273-1 .062-.448.304-.898.672-1.269.421-.421.949-.671 1.449-.687l.363-.012V2.301c0-.028.02-.051.047-.055L13.059.875zm0-.375q-.032-.001-.062.004l-9.14 1.371a.43.43 0 0 0-.368.426v9.203c-.566.016-1.195.293-1.7.797-.882.883-1.062 2.137-.402 2.8.274.27.641.399 1.04.399.585 0 1.238-.277 1.761-.8.504-.505.781-1.134.797-1.7H5V5.488c0-.12.09-.226.21-.246l6.5-.976h.04c.137 0 .25.109.25.25v5.988c-.566.016-1.195.293-1.7.797-.882.883-1.062 2.137-.402 2.8.274.27.641.399 1.04.399.585 0 1.238-.277 1.761-.8.504-.505.781-1.134.797-1.7h.004V.93a.43.43 0 0 0-.43-.43m0 0" style="stroke:none;fill-rule:nonzero;fill:#424242;fill-opacity:1"/></g></defs><path d="M3.867 1.875a.43.43 0 0 0-.367.426v9.203c-.566.016-1.195.293-1.7.797-.882.883-1.062 2.137-.402 2.8.665.66 1.918.481 2.801-.402.504-.504.781-1.133.797-1.699H5V5.488c0-.12.09-.226.21-.246l6.5-.976c.153-.02.29.097.29.25v5.988c-.566.016-1.195.293-1.7.797-.882.883-1.062 2.137-.402 2.8.665.66 1.918.481 2.801-.402.504-.504.781-1.133.797-1.699h.004V.93a.43.43 0 0 0-.492-.426Zm0 0" style="stroke:none;fill-rule:nonzero;fill:url(#c)"/><use xlink:href="#e" mask="url(#d)"/></svg>
